img/svg/main-menu-icons/home-ico.svg

<svg width="26" height="26" viewBox="0 0 26 26" fill="none" xmlns="http://www.w3.org/2000/svg">
<g clip-path="url(#clip0)">
<path d="M25.7049 12.4725L15.1225 1.82052C15.109 1.80681 15.0949 1.7935 15.0806 1.7806C13.9251 0.743092 12.179 0.739385 11.019 1.77202C11.0046 1.78487 10.9906 1.79812 10.9769 1.81173L0.298182 12.4694C-0.0988261 12.8657 -0.0994863 13.5088 0.29676 13.9058C0.693057 14.3028 1.3361 14.3034 1.73306 13.9072L2.53906 13.1028V21.8719C2.53906 24.112 4.36149 25.9344 6.60156 25.9344H10.2578C10.8187 25.9344 11.2734 25.4797 11.2734 24.9188V16.6414H14.8281V24.9188C14.8281 25.4797 15.2828 25.9344 15.8437 25.9344H19.3984C21.6385 25.9344 23.4609 24.112 23.4609 21.8719C23.4609 21.311 23.0062 20.8563 22.4453 20.8563C21.8844 20.8563 21.4297 21.311 21.4297 21.8719C21.4297 22.9919 20.5185 23.9031 19.3984 23.9031H16.8594V15.6258C16.8594 15.0649 16.4047 14.6102 15.8437 14.6102H10.2578C9.69688 14.6102 9.24218 15.0649 9.24218 15.6258V23.9031H6.60156C5.48153 23.9031 4.57031 22.9919 4.57031 21.8719V11.1063C4.57031 11.0961 4.57015 11.086 4.56985 11.076L12.3879 3.27337C12.7684 2.95025 13.3265 2.95147 13.7055 3.27616L21.4297 11.0513V16.7938C21.4297 17.3547 21.8844 17.8094 22.4453 17.8094C23.0062 17.8094 23.4609 17.3547 23.4609 16.7938V13.0959L24.2639 13.9042C24.4624 14.104 24.7233 14.204 24.9844 14.204C25.2432 14.204 25.5021 14.1056 25.7002 13.9088C26.0981 13.5135 26.1002 12.8705 25.7049 12.4725Z" fill="#E0E0E0"/>
</g>
<defs>
<clipPath id="clip0">
<rect width="26" height="26" fill="white"/>
</clipPath>
</defs>
</svg>

<svg width="26" height="26" fill="none" xmlns="http://www.w3.org/2000/svg"><g clip-path="url(#clip0)"><path d="M25.705 12.473L15.123 1.82a3.044 3.044 0 00-4.146-.009L.298 12.469a1.016 1.016 0 001.435 1.438l.806-.804v8.769a4.067 4.067 0 004.063 4.062h3.656c.56 0 1.015-.454 1.015-1.015V16.64h3.555v8.278c0 .56.455 1.015 1.016 1.015h3.554a4.067 4.067 0 004.063-4.062 1.016 1.016 0 00-2.031 0c0 1.12-.912 2.031-2.032 2.031H16.86v-8.277c0-.561-.454-1.016-1.015-1.016h-5.586c-.561 0-1.016.455-1.016 1.016v8.277h-2.64a2.034 2.034 0 01-2.032-2.031V11.076l7.818-7.803c.38-.323.938-.322 1.318.003l7.724 7.775v5.743a1.016 1.016 0 002.03 0v-3.698l.804.808a1.012 1.012 0 001.436.005c.398-.396.4-1.039.005-1.437z" fill="#E0E0E0"/></g><defs><clipPath id="clip0"><path fill="#fff" d="M0 0h26v26H0z"/></clipPath></defs></svg>
